src/images/arc.svg

<svg width="103" height="578" viewBox="0 0 103 578" fill="none" xmlns="http://www.w3.org/2000/svg">
<g opacity="0.4">
<path d="M0.0164109 0.94043C-0.0178298 1.20058 0.0497971 1.47375 0.226433 1.69498C1.88079 3.76674 3.51757 5.8531 5.13671 7.95381C5.47387 8.39125 6.1018 8.47255 6.53924 8.13541C6.97668 7.79825 7.05798 7.17033 6.72082 6.73289C5.2232 4.78977 3.71038 2.85889 2.18273 0.94043H0.0164109Z" fill="#333333" fill-opacity="0.72"/>
<path d="M17.176 22.5674C17.6276 22.2494 18.2514 22.3576 18.5695 22.8091C20.1032 24.9867 21.6187 27.1781 23.1157 29.3832C23.4258 29.8401 23.3069 30.462 22.85 30.7722C22.393 31.0824 21.7711 30.9635 21.4609 30.5065C19.9705 28.311 18.4615 26.129 16.9343 23.9608C16.6163 23.5093 16.7245 22.8855 17.176 22.5674Z" fill="#333333" fill-opacity="0.72"/>
<path d="M32.5976 45.8183C33.0675 45.5281 33.6837 45.6737 33.9739 46.1436C35.3726 48.4081 36.7523 50.6855 38.1128 52.9757C38.3949 53.4505 38.2386 54.0641 37.7638 54.3462C37.289 54.6282 36.6754 54.472 36.3934 53.9972C35.0387 51.7169 33.665 49.4493 32.2723 47.1946C31.9821 46.7247 32.1277 46.1086 32.5976 45.8183Z" fill="#333333" fill-opacity="0.72"/>
<path d="M46.5869 69.9568C47.0735 69.6955 47.6797 69.8781 47.941 70.3647C49.1995 72.7081 50.4383 75.0636 51.6573 77.431C51.9101 77.922 51.717 78.525 51.2261 78.7778C50.735 79.0307 50.132 78.8376 49.8792 78.3466C48.6655 75.9894 47.432 73.6441 46.179 71.3109C45.9177 70.8243 46.1003 70.218 46.5869 69.9568Z" fill="#333333" fill-opacity="0.72"/>
<path d="M59.0867 94.8919C59.5882 94.6606 60.1823 94.8796 60.4136 95.3811C61.5284 97.7981 62.623 100.226 63.6972 102.665C63.9198 103.171 63.6905 103.761 63.1851 103.984C62.6796 104.206 62.0894 103.977 61.8668 103.471C60.7974 101.043 59.7075 98.6253 58.5975 96.2188C58.3662 95.7173 58.5853 95.1233 59.0867 94.8919Z" fill="#333333" fill-opacity="0.72"/>
<path d="M70.0521 120.543C70.5667 120.342 71.1464 120.597 71.3468 121.112C72.3137 123.594 73.2598 126.087 74.1847 128.591C74.3762 129.109 74.1114 129.684 73.5934 129.875C73.0754 130.067 72.5002 129.802 72.3088 129.284C71.3877 126.792 70.4458 124.309 69.4831 121.838C69.2827 121.323 69.5375 120.743 70.0521 120.543Z" fill="#333333" fill-opacity="0.72"/>
<path d="M79.4395 146.819C79.9654 146.65 80.5285 146.94 80.6973 147.466C81.5101 149.999 82.3017 152.542 83.0718 155.094C83.2314 155.622 82.9322 156.18 82.4034 156.34C81.8747 156.5 81.3167 156.2 81.1572 155.672C80.3903 153.131 79.6022 150.599 78.7928 148.077C78.6241 147.551 78.9136 146.988 79.4395 146.819Z" fill="#333333" fill-opacity="0.72"/>
<path d="M87.2107 173.62C87.7459 173.484 88.2903 173.807 88.4268 174.342C89.0826 176.915 89.7168 179.496 90.3293 182.086C90.4564 182.623 90.1237 183.162 89.5862 183.289C89.0488 183.416 88.5101 183.084 88.383 182.546C87.7731 179.968 87.1417 177.398 86.4887 174.836C86.3523 174.301 86.6756 173.757 87.2107 173.62Z" fill="#333333" fill-opacity="0.72"/>
<path d="M93.3334 200.825C93.8758 200.721 94.3997 201.077 94.5033 201.619C95.0022 204.23 95.4792 206.849 95.9341 209.475C96.0283 210.02 95.6636 210.537 95.1194 210.631C94.5752 210.726 94.0577 210.361 93.9634 209.817C93.5106 207.202 93.0356 204.594 92.5388 201.995C92.4352 201.452 92.7909 200.929 93.3334 200.825Z" fill="#333333" fill-opacity="0.72"/>
<path d="M97.7959 228.357C98.3436 228.286 98.845 228.673 98.9156 229.22C99.2562 231.861 99.5745 234.508 99.8703 237.162C99.9315 237.711 99.5361 238.206 98.9872 238.267C98.4383 238.328 97.9438 237.933 97.8826 237.384C97.588 234.741 97.2711 232.105 96.932 229.476C96.8614 228.929 97.2482 228.427 97.7959 228.357Z" fill="#333333" fill-opacity="0.72"/>
<path d="M100.59 256.115C101.141 256.077 101.618 256.493 101.655 257.045C101.837 259.706 101.996 262.373 102.132 265.046C102.16 265.598 101.736 266.068 101.184 266.096C100.633 266.124 100.163 265.699 100.135 265.148C99.999 262.486 99.8406 259.83 99.6599 257.181C99.6223 256.63 100.039 256.152 100.59 256.115Z" fill="#333333" fill-opacity="0.72"/>
<path d="M101.716 284C102.268 283.995 102.72 284.439 102.725 284.991C102.736 286.328 102.742 287.666 102.742 289.005C102.742 290.344 102.736 291.682 102.725 293.019C102.72 293.571 102.268 294.015 101.716 294.01C101.164 294.005 100.72 293.554 100.725 293.002C100.736 291.671 100.742 290.338 100.742 289.005C100.742 287.671 100.736 286.339 100.725 285.008C100.72 284.456 101.164 284.005 101.716 284Z" fill="#333333" fill-opacity="0.72"/>
<path d="M101.184 311.914C101.736 311.942 102.16 312.412 102.132 312.964C101.996 315.637 101.837 318.304 101.655 320.965C101.618 321.516 101.14 321.933 100.59 321.895C100.039 321.857 99.6223 321.38 99.6599 320.829C99.8406 318.18 99.999 315.524 100.135 312.862C100.163 312.31 100.633 311.886 101.184 311.914Z" fill="#333333" fill-opacity="0.72"/>
<path d="M98.9872 339.743C99.5361 339.804 99.9314 340.299 99.8703 340.848C99.5744 343.502 99.2561 346.149 98.9156 348.789C98.8449 349.337 98.3436 349.724 97.7958 349.653C97.2481 349.583 96.8613 349.081 96.932 348.534C97.2711 345.905 97.588 343.269 97.8826 340.626C97.9438 340.077 98.4383 339.682 98.9872 339.743Z" fill="#333333" fill-opacity="0.72"/>
<path d="M95.1194 367.379C95.6636 367.473 96.0283 367.99 95.934 368.534C95.4792 371.161 95.0022 373.779 94.5032 376.39C94.3996 376.933 93.8758 377.289 93.3333 377.185C92.7909 377.081 92.4351 376.557 92.5388 376.015C93.0356 373.415 93.5105 370.808 93.9634 368.193C94.0576 367.649 94.5752 367.284 95.1194 367.379Z" fill="#333333" fill-opacity="0.72"/>
<path d="M89.5862 394.721C90.1237 394.848 90.4564 395.386 90.3292 395.924C89.7168 398.514 89.0825 401.095 88.4268 403.668C88.2903 404.203 87.7459 404.526 87.2107 404.39C86.6755 404.253 86.3523 403.709 86.4887 403.174C87.1417 400.612 87.7731 398.042 88.3829 395.464C88.5101 394.926 89.0488 394.594 89.5862 394.721Z" fill="#333333" fill-opacity="0.72"/>
<path d="M82.4034 421.67C82.9321 421.829 83.2314 422.387 83.0718 422.916C82.3017 425.468 81.5101 428.011 80.6972 430.544C80.5285 431.07 79.9654 431.359 79.4395 431.191C78.9136 431.022 78.6241 430.459 78.7928 429.933C79.6022 427.411 80.3903 424.879 81.1571 422.338C81.3167 421.81 81.8747 421.51 82.4034 421.67Z" fill="#333333" fill-opacity="0.72"/>
<path d="M73.5934 448.135C74.1114 448.326 74.3762 448.901 74.1847 449.419C73.2597 451.922 72.3137 454.415 71.3468 456.898C71.1464 457.413 70.5667 457.667 70.0521 457.467C69.5374 457.266 69.2827 456.687 69.4831 456.172C70.4458 453.7 71.3877 451.218 72.3088 448.726C72.5002 448.208 73.0753 447.943 73.5934 448.135Z" fill="#333333" fill-opacity="0.72"/>
<path d="M63.185 474.026C63.6905 474.249 63.9198 474.839 63.6972 475.344C62.623 477.784 61.5284 480.212 60.4136 482.629C60.1823 483.13 59.5882 483.349 59.0867 483.118C58.5852 482.887 58.3662 482.292 58.5975 481.791C59.7075 479.385 60.7973 476.967 61.8668 474.538C62.0894 474.033 62.6796 473.804 63.185 474.026Z" fill="#333333" fill-opacity="0.72"/>
<path d="M51.226 499.232C51.717 499.485 51.9101 500.088 51.6573 500.579C50.4383 502.946 49.1995 505.302 47.941 507.645C47.6797 508.132 47.0735 508.314 46.5869 508.053C46.1003 507.792 45.9177 507.185 46.179 506.699C47.4319 504.366 48.6655 502.02 49.8791 499.663C50.132 499.172 50.735 498.979 51.226 499.232Z" fill="#333333" fill-opacity="0.72"/>
<path d="M37.7638 523.664C38.2386 523.946 38.3949 524.559 38.1128 525.034C36.7523 527.324 35.3726 529.602 33.9739 531.866C33.6837 532.336 33.0675 532.482 32.5976 532.191C32.1277 531.901 31.9821 531.285 32.2723 530.815C33.665 528.56 35.0387 526.293 36.3934 524.013C36.6754 523.538 37.289 523.381 37.7638 523.664Z" fill="#333333" fill-opacity="0.72"/>
<path d="M22.85 547.237C23.3069 547.548 23.4258 548.17 23.1157 548.627C21.6187 550.832 20.1032 553.023 18.5695 555.201C18.2514 555.652 17.6276 555.76 17.176 555.442C16.7245 555.124 16.6163 554.5 16.9343 554.049C18.4615 551.881 19.9705 549.699 21.4609 547.503C21.7711 547.046 22.393 546.927 22.85 547.237Z" fill="#333333" fill-opacity="0.72"/>
<path d="M6.53918 569.874C6.97662 570.211 7.05791 570.839 6.72076 571.277C5.09466 573.387 3.4508 575.482 1.7893 577.563C1.44469 577.994 0.815483 578.065 0.383904 577.72C-0.047676 577.375 -0.118172 576.746 0.226433 576.315C1.88079 574.243 3.51757 572.157 5.13671 570.056C5.47387 569.618 6.10174 569.537 6.53918 569.874Z" fill="#333333" fill-opacity="0.72"/>
</g>
</svg>

<svg xmlns="http://www.w3.org/2000/svg" width="103" height="578" fill="#333" opacity=".4"><path d="M.016.94c-.034.26.033.533.2.755l4.9 6.26A1 1 0 1 0 6.7 6.734L2.183.94H.016zm17.16 21.627a1 1 0 0 1 1.394.242l4.546 6.574a1 1 0 0 1-1.655 1.123l-4.527-6.546a1 1 0 0 1 .242-1.393zm15.422 23.25a1 1 0 0 1 1.376.325l4.14 6.832a1 1 0 0 1-1.719 1.021l-4.12-6.803a1 1 0 0 1 .325-1.376zm13.99 24.14a1 1 0 0 1 1.354.408l3.716 7.066a1 1 0 0 1-1.778.916l-3.7-7.036a1 1 0 0 1 .408-1.354zm12.5 24.935a1 1 0 0 1 1.327.489l3.284 7.284a1 1 0 0 1-1.83.806l-3.27-7.252a1 1 0 0 1 .489-1.327zm10.965 25.65a1 1 0 0 1 1.295.569l2.838 7.48a1 1 0 0 1-1.876.693l-2.826-7.446a1 1 0 0 1 .569-1.295zm9.388 26.277a1 1 0 0 1 1.258.647l2.374 7.628a1 1 0 0 1-1.915.578l-2.364-7.595a1 1 0 0 1 .647-1.258zm7.77 26.8a1 1 0 0 1 1.216.722l1.903 7.744a1 1 0 0 1-1.946.46l-1.894-7.7a1 1 0 0 1 .722-1.216zm6.123 27.205a1 1 0 0 1 1.17.794l1.43 7.856a1 1 0 1 1-1.971.342l-1.425-7.822a1 1 0 0 1 .795-1.17zm4.463 27.532a1 1 0 0 1 1.12.863l.955 7.942a1 1 0 0 1-1.988.222l-.95-7.908a1 1 0 0 1 .864-1.119zm2.804 27.758a1 1 0 0 1 1.065.93l.477 8a1 1 0 0 1-.948 1.05 1 1 0 0 1-1.049-.948l-.475-7.967a1 1 0 0 1 .93-1.066zM101.716 284a1 1 0 0 1 1.009.991l.017 4.014-.017 4.014a1 1 0 1 1-2-.017l.017-3.997-.017-3.997a1 1 0 0 1 .991-1.008zm-.532 27.914a1 1 0 0 1 .948 1.05l-.477 8a1 1 0 0 1-1.065.93 1 1 0 0 1-.93-1.066l.475-7.967a1 1 0 0 1 1.049-.948zm-2.197 27.83a1 1 0 0 1 .883 1.105l-.955 7.94a1 1 0 0 1-1.984-.255l.95-7.908a1 1 0 0 1 1.105-.883zM95.12 367.38a1 1 0 0 1 .815 1.155l-1.43 7.856a1 1 0 0 1-1.964-.375l1.425-7.822a1 1 0 0 1 1.156-.814zm-5.534 27.34a1 1 0 0 1 .743 1.203l-1.902 7.744a1 1 0 0 1-1.938-.494l1.894-7.7a1 1 0 0 1 1.203-.743zm-7.183 26.95a1 1 0 0 1 .668 1.246l-2.375 7.628a1 1 0 0 1-1.904-.611l2.364-7.595a1 1 0 0 1 1.246-.668zm-8.8 26.465a1 1 0 0 1 .591 1.284l-2.838 7.48a1 1 0 1 1-1.864-.726l2.826-7.446a1 1 0 0 1 1.285-.591zm-10.408 25.89a1 1 0 0 1 .512 1.318l-3.284 7.285a1 1 0 1 1-1.816-.838l3.27-7.253a1 1 0 0 1 1.318-.512zm-11.96 25.206a1 1 0 0 1 .431 1.347l-3.716 7.066a1 1 0 0 1-1.762-.946l3.7-7.036a1 1 0 0 1 1.347-.431zm-13.462 24.432a1 1 0 0 1 .349 1.37l-4.14 6.832a1 1 0 1 1-1.702-1.051l4.12-6.802a1 1 0 0 1 1.37-.349zM22.85 547.237a1 1 0 0 1 .266 1.39L18.57 555.2a1 1 0 1 1-1.635-1.152l4.527-6.546a1 1 0 0 1 1.389-.266zm-16.3 22.637a1 1 0 0 1 .182 1.403l-4.93 6.286a1 1 0 0 1-1.405.157 1 1 0 0 1-.157-1.405l4.9-6.26a1 1 0 0 1 1.402-.182z" fill-opacity=".72"/></svg>
